X: 24
T: Poor Dickey
%R: jig
B: "Le Sylphe, Twenty Four Country Dances with Figures for the Year 1818", Button & Whitaker, p.12 #2
F: http://www.vwml.org/browse/browse-collections-dance-tune-books/browse-button1818
Z: 2014 John Chambers <jc:trillian.mit.edu>
N: The Figures by Mr WILSON.
M: 6/8
L: 1/8
K: D
% - - - - - - - - - - - - - - - - - - - - - - - - - - - - -
[|\
f2d e2c | d2B AFD | B2d g2f | fed ceA |\
f2d e2c | d2B AFD | B2b a2g | fge d3 |]
[|\
f2d a2e | dcd cBA | f2d e2a | ^gab a3 |\
B2b afd | cc2d ecA | B2d A2f | ede d3 |]
% - - - - - - - - - - Dance description - - - - - - - - - -
%%center SINGLE FIGURE        (Tune play'd straight thro')
%%begintext align
%% Hands 6 round & back again |. swing round
%% the 2d Cu: & turn your partner |. .
%%endtext
%%center DOUBLE FIGURE        (Each strain repeated)
%%begintext align
%% The 3 Ladies lead round 3 Gent: |.
%% 3 Gent: lead round 3 Ladies |:
%% cross over one Cu: half figure round 3d Cu: |.
%% & turn corners |:
%%endtext
%%sep 1 1 450
